static/images/icons/algolia.svg

<svg enable-background="new 0 0 512 512" height="512" viewBox="0 0 512 512" width="512" xmlns="http://www.w3.org/2000/svg"><g fill="#5468ff"><path d="m259.094 191.916c-48.42 0-87.606 39.187-87.606 87.607 0 48.419 39.186 87.605 87.606 87.605 48.419 0 87.606-39.187 87.606-87.605 0-48.42-39.286-87.607-87.606-87.607zm61.58 55.589-57.848 30.052c-1.769.886-3.732-.393-3.732-2.26v-65.31c0-1.473 1.276-2.652 2.651-2.553 25.732.981 48.026 15.419 60.009 36.436.687 1.277.194 2.946-1.08 3.635z"/><path d="m418.198 36.003h-324.299c-31.919 0-57.847 25.928-57.847 57.847v324.201c0 32.018 25.928 57.946 57.847 57.946h324.203c32.017 0 57.846-25.929 57.846-57.848v-324.299c.1-31.919-25.83-57.847-57.75-57.847zm-181.989 72.039h44.491c10.607 0 19.152 8.544 19.152 19.151v15.125c0 1.768-1.67 2.947-3.241 2.457-12.08-3.34-24.651-5.01-37.421-5.01-13.258 0-26.222 1.768-38.694 5.401-1.671.492-3.341-.786-3.341-2.455v-15.517h-.097c0-10.608 8.545-19.152 19.151-19.152zm-102.043 55.491 9.036-9.036c7.464-7.464 19.544-7.464 27.009 0l7.562 7.562c1.08 1.081.983 2.946-.293 3.929-6.09 4.42-11.884 9.232-17.287 14.633-5.303 5.304-10.213 11.097-14.536 17.089-.982 1.276-2.848 1.473-3.928.294l-7.563-7.563c-7.464-7.365-7.464-19.445 0-26.908zm124.928 240.425c-68.75 0-124.338-55.688-124.338-124.337 0-68.652 55.687-124.339 124.338-124.339 68.749 0 124.338 55.588 124.338 124.339 0 68.552-55.687 124.337-124.338 124.337z"/></g></svg>

<?xml version="1.0" ?><!DOCTYPE svg  PUBLIC '-//W3C//DTD SVG 1.1//EN'  'http://www.w3.org/Graphics/SVG/1.1/DTD/svg11.dtd'><svg height="512px" style="enable-background:new 0 0 512 512;" version="1.1" viewBox="0 0 512 512" width="512px" xml:space="preserve" xmlns="http://www.w3.org/2000/svg" xmlns:xlink="http://www.w3.org/1999/xlink"><g id="_x31_2-algolia"><g><path d="M259.094,191.916c-48.42,0-87.606,39.187-87.606,87.607c0,48.419,39.186,87.605,87.606,87.605    c48.419,0,87.606-39.187,87.606-87.605C346.7,231.103,307.414,191.916,259.094,191.916z M320.674,247.505l-57.848,30.052    c-1.769,0.886-3.732-0.393-3.732-2.26v-65.31c0-1.473,1.276-2.652,2.651-2.553c25.732,0.981,48.026,15.419,60.009,36.436    C322.441,245.147,321.948,246.816,320.674,247.505z" style="fill:#5468FF;"/><path d="M418.198,36.003H93.899c-31.919,0-57.847,25.928-57.847,57.847v324.201    c0,32.018,25.928,57.946,57.847,57.946h324.203c32.017,0,57.846-25.929,57.846-57.848V93.85    C476.048,61.931,450.118,36.003,418.198,36.003z M236.209,108.042H280.7c10.607,0,19.152,8.544,19.152,19.151v15.125    c0,1.768-1.67,2.947-3.241,2.457c-12.08-3.34-24.651-5.01-37.421-5.01c-13.258,0-26.222,1.768-38.694,5.401    c-1.671,0.492-3.341-0.786-3.341-2.455v-15.517h-0.097C217.058,116.586,225.603,108.042,236.209,108.042z M134.166,163.533    l9.036-9.036c7.464-7.464,19.544-7.464,27.009,0l7.562,7.562c1.08,1.081,0.983,2.946-0.293,3.929    c-6.09,4.42-11.884,9.232-17.287,14.633c-5.303,5.304-10.213,11.097-14.536,17.089c-0.982,1.276-2.848,1.473-3.928,0.294    l-7.563-7.563C126.702,183.076,126.702,170.996,134.166,163.533z M259.094,403.958c-68.75,0-124.338-55.688-124.338-124.337    c0-68.652,55.687-124.339,124.338-124.339c68.749,0,124.338,55.588,124.338,124.339    C383.432,348.173,327.745,403.958,259.094,403.958z" style="fill:#5468FF;"/></g></g><g id="Layer_1"/></svg>
